report_00007_2020-12-11T15:55:29.892Z/largest-contentful-paint/comparison/line/3_vs_4.svg

<svg width="640" height="500" xmlns="http://www.w3.org/2000/svg" xmlns:xlink="http://www.w3.org/1999/xlink"><path fill="#fff" d="M0 0h640v500H0z"/><defs><path id="d" stroke-width=".222" stroke="currentColor" d="M-1-1h2v2h-2z"/><path id="b" stroke-width=".222" stroke="currentColor" d="M0-1.33l-1.33 2h2.66z"/><path id="f" stroke-width=".222" stroke="currentColor" d="M0 1.33L1.265.411.782-1.067l-1.564-.009-.483 1.487z"/><use xlink:href="#b" id="c" stroke="currentColor" transform="rotate(180)"/><use xlink:href="#d" id="e" stroke="currentColor" transform="rotate(45)"/><circle id="a" stroke-width=".222" stroke="currentColor" cx="0" cy="0" r="1"/></defs><g fill="none" color="#000" stroke="currentColor"><path stroke="#000" d="M70.5 399.3h9m535.5 0h-9"/><text transform="translate(62.2 403.2)" stroke="none" fill="#000" font-family="Arial" font-size="12" text-anchor="end"><tspan>10000</tspan></text></g><g fill="none" color="#000" stroke="currentColor"><path stroke="#000" d="M70.5 303.7h9m535.5 0h-9"/><text transform="translate(62.2 307.6)" stroke="none" fill="#000" font-family="Arial" font-size="12" text-anchor="end"><tspan>15000</tspan></text></g><g fill="none" color="#000" stroke="currentColor"><path stroke="#000" d="M70.5 208.1h9m535.5 0h-9"/><text transform="translate(62.2 212)" stroke="none" fill="#000" font-family="Arial" font-size="12" text-anchor="end"><tspan>20000</tspan></text></g><g fill="none" color="#000" stroke="currentColor"><path stroke="#000" d="M70.5 112.6h9m535.5 0h-9"/><text transform="translate(62.2 116.5)" stroke="none" fill="#000" font-family="Arial" font-size="12" text-anchor="end"><tspan>25000</tspan></text></g><g fill="none" color="#000" stroke="currentColor"><path stroke="#000" d="M70.5 428v-9m0-400.9v9"/><text transform="translate(70.5 449.9)" stroke="none" fill="#000" font-family="Arial" font-size="12" text-anchor="middle"><tspan>0</tspan></text></g><g fill="none" color="#000" stroke="currentColor"><path stroke="#000" d="M125.5 428v-9m0-400.9v9"/><text transform="translate(125.5 449.9)" stroke="none" fill="#000" font-family="Arial" font-size="12" text-anchor="middle"><tspan>10</tspan></text></g><g fill="none" color="#000" stroke="currentColor"><path stroke="#000" d="M180.5 428v-9m0-400.9v9"/><text transform="translate(180.5 449.9)" stroke="none" fill="#000" font-family="Arial" font-size="12" text-anchor="middle"><tspan>20</tspan></text></g><g fill="none" color="#000" stroke="currentColor"><path stroke="#000" d="M235.5 428v-9m0-400.9v9"/><text transform="translate(235.5 449.9)" stroke="none" fill="#000" font-family="Arial" font-size="12" text-anchor="middle"><tspan>30</tspan></text></g><g fill="none" color="#000" stroke="currentColor"><path stroke="#000" d="M290.5 428v-9m0-400.9v9"/><text transform="translate(290.5 449.9)" stroke="none" fill="#000" font-family="Arial" font-size="12" text-anchor="middle"><tspan>40</tspan></text></g><g fill="none" color="#000" stroke="currentColor"><path stroke="#000" d="M345.5 428v-9m0-400.9v9"/><text transform="translate(345.5 449.9)" stroke="none" fill="#000" font-family="Arial" font-size="12" text-anchor="middle"><tspan>50</tspan></text></g><g fill="none" color="#000" stroke="currentColor"><path stroke="#000" d="M400.5 428v-9m0-400.9v9"/><text transform="translate(400.5 449.9)" stroke="none" fill="#000" font-family="Arial" font-size="12" text-anchor="middle"><tspan>60</tspan></text></g><g fill="none" color="#000" stroke="currentColor"><path stroke="#000" d="M455.5 428v-9m0-400.9v9"/><text transform="translate(455.5 449.9)" stroke="none" fill="#000" font-family="Arial" font-size="12" text-anchor="middle"><tspan>70</tspan></text></g><g fill="none" color="#000" stroke="currentColor"><path stroke="#000" d="M510.5 428v-9m0-400.9v9"/><text transform="translate(510.5 449.9)" stroke="none" fill="#000" font-family="Arial" font-size="12" text-anchor="middle"><tspan>80</tspan></text></g><g fill="none" color="#000" stroke="currentColor"><path stroke="#000" d="M565.5 428v-9m0-400.9v9"/><text transform="translate(565.5 449.9)" stroke="none" fill="#000" font-family="Arial" font-size="12" text-anchor="middle"><tspan>90</tspan></text></g><path stroke="#000" d="M70.5 18.1V428H615V18.1H70.5z" fill="none" color="#000"/><text transform="translate(283.9 467.9)" stroke="none" fill="#000" font-family="Arial" font-size="12" text-anchor="end" color="#000"><tspan>pages+cached+nointeractive</tspan></text><path stroke="#9400D3" d="M292.2 464h42.2M70.5 306.3l5.5-16.9 5.5-.1 5.5-.1 5.5-.2 5.5.1 5.5 16.8 5.5 1 5.5-19.2 5.5 18.8 5.5-17.2 5.5 17.3 5.5 1.3 5.5-1.7 5.5-17 5.5-.3 5.5.6 5.5-.6 5.5.3 5.5 17.2 5.5-17.2 5.5-.2 5.5.1 5.5-.1 5.5 17.7 5.5.9 5.5-19.6 5.5 19.9 5.5-281.6 5.5 178L235.5 26l5.5.7 5.5 167.7 5.5 8.8 5.5-166.7 5.5 157.8 5.5-82 5.5-86.1 5.5.3h5.5l5.5 167.6 5.5-168 5.5.5 5.5-.6 5.5 10.4 5.5.1 5.5-10 5.5-.1h5.5l5.5 86 5.5-85.9 5.5 85.9 5.5-75.9 5.5 167.9 5.5-10.1 5.5 10.3 5.5-169.7 5.5 77.3 5.5-85.1 5.5 177.3 5.5-10.5 5.5-159 5.5-8.3 5.5-.4 5.5 167.9 5.5.2 5.5-82 5.5 82.1 5.5-82.1 5.5-86 5.5 237.2 5.5 8.3 5.5-77.5 5.5.1 5.5-168.2 5.5.4 5.5-.2 5.5-.2 5.5.1 5.5 178 5.5-177.4L516 263l5.5-237 5.5 178.5 5.5.6L538 26.3l5.5 168L549 34.8l5.5 159.5 5.5 77.8 5.5-245.7 5.5 167.4 5.5-157.6 5.5 158.3 5.5-167.8 5.5 176.5 5.5-8.7L604 26.4l5.5.1 5.5-.3" fill="none" color="#000"/><text transform="translate(283.9 485.9)" stroke="none" fill="#000" font-family="Arial" font-size="12" text-anchor="end" color="#000"><tspan>pages+cached+noadtech</tspan></text><path stroke="#009E73" d="M292.2 482h42.2M70.5 404.2l5.5 15.3 5.5.1 5.5.3 5.5-16.3 5.5-.1 5.5 16.4h5.5l5.5-.2h5.5l5.5-16 5.5.1 5.5 15.6 5.5.2h5.5l5.5-.1 5.5-16.1 5.5 16.3 5.5-16 5.5 15.6 5.5.6 5.5-.2 5.5-.2 5.5.5 5.5-.4 5.5-.1h5.5l5.5.1 5.5-17.1 5.5 1.2 5.5 16.4 5.5-.2 5.5.1 5.5-.3 5.5.2 5.5-16 5.5 15.5 5.5.4 5.5-15.9 5.5-.1 5.5 16 5.5-16 5.5 15.9 5.5-16 5.5 15.9 5.5-15.8 5.5 15.7h5.5l5.5-15.6 5.5 15.8 5.5-.2 5.5.1 5.5-.1 5.5-15.7 5.5 16 5.5-16.2 5.5 16 5.5.1h5.5l5.5-.5 5.5.6 5.5-.3 5.5-15.5 5.5 15.5 5.5.1 5.5-.3 5.5.3 5.5.3 5.5-.1 5.5-15.9 5.5.3 5.5-.2 5.5 15.7 5.5-.2 5.5-15.7 5.5 15.8 5.5-.1 5.5.2 5.5-15.9 5.5 15.9 5.5-16 5.5 16 5.5-15.9 5.5 16.1 5.5-16 5.5-.2 5.5.1 5.5 15.7 5.5-15.8L560 420l5.5-.4 5.5-.1 5.5-269.8 5.5 270 5.5-17.2 5.5.8 5.5 16.6 5.5-.3h5.5l5.5-15.9" fill="none" color="#000"/><text transform="translate(558.5 467.9)" stroke="none" fill="#000" font-family="Arial" font-size="12" text-anchor="end" color="#000"><tspan>score p10=2500</tspan></text><path stroke="#56B4E9" d="M566.8 464H609" fill="none" color="#000"/><g><text transform="translate(558.5 485.9)" stroke="none" fill="#000" font-family="Arial" font-size="12" text-anchor="end" color="#000"><tspan>score median=4000</tspan></text><path stroke="#E69F00" d="M566.8 482H609" fill="none" color="#000"/></g><g fill="none" color="#000" stroke="currentColor"><path stroke="#000" d="M70.5 18.1V428H615V18.1H70.5z"/></g></svg>

<?xml version="1.0" encoding="utf-8"  standalone="no"?>
<svg 
 width="640" height="500"
 viewBox="0 0 640 500"
 xmlns="http://www.w3.org/2000/svg"
 xmlns:xlink="http://www.w3.org/1999/xlink"
>

<title>Gnuplot</title>
<desc>Produced by GNUPLOT 5.4 patchlevel 0 </desc>

<g id="gnuplot_canvas">

<rect x="0" y="0" width="640" height="500" fill="#ffffff"/>
<defs>

	<circle id='gpDot' r='0.5' stroke-width='0.5' stroke='currentColor'/>
	<path id='gpPt0' stroke-width='0.222' stroke='currentColor' d='M-1,0 h2 M0,-1 v2'/>
	<path id='gpPt1' stroke-width='0.222' stroke='currentColor' d='M-1,-1 L1,1 M1,-1 L-1,1'/>
	<path id='gpPt2' stroke-width='0.222' stroke='currentColor' d='M-1,0 L1,0 M0,-1 L0,1 M-1,-1 L1,1 M-1,1 L1,-1'/>
	<rect id='gpPt3' stroke-width='0.222' stroke='currentColor' x='-1' y='-1' width='2' height='2'/>
	<rect id='gpPt4' stroke-width='0.222' stroke='currentColor' fill='currentColor' x='-1' y='-1' width='2' height='2'/>
	<circle id='gpPt5' stroke-width='0.222' stroke='currentColor' cx='0' cy='0' r='1'/>
	<use xlink:href='#gpPt5' id='gpPt6' fill='currentColor' stroke='none'/>
	<path id='gpPt7' stroke-width='0.222' stroke='currentColor' d='M0,-1.33 L-1.33,0.67 L1.33,0.67 z'/>
	<use xlink:href='#gpPt7' id='gpPt8' fill='currentColor' stroke='none'/>
	<use xlink:href='#gpPt7' id='gpPt9' stroke='currentColor' transform='rotate(180)'/>
	<use xlink:href='#gpPt9' id='gpPt10' fill='currentColor' stroke='none'/>
	<use xlink:href='#gpPt3' id='gpPt11' stroke='currentColor' transform='rotate(45)'/>
	<use xlink:href='#gpPt11' id='gpPt12' fill='currentColor' stroke='none'/>
	<path id='gpPt13' stroke-width='0.222' stroke='currentColor' d='M0,1.330 L1.265,0.411 L0.782,-1.067 L-0.782,-1.076 L-1.265,0.411 z'/>
	<use xlink:href='#gpPt13' id='gpPt14' fill='currentColor' stroke='none'/>
	<filter id='textbox' filterUnits='objectBoundingBox' x='0' y='0' height='1' width='1'>
	  <feFlood flood-color='#FFFFFF' flood-opacity='1' result='bgnd'/>
	  <feComposite in='SourceGraphic' in2='bgnd' operator='atop'/>
	</filter>
	<filter id='greybox' filterUnits='objectBoundingBox' x='0' y='0' height='1' width='1'>
	  <feFlood flood-color='lightgrey' flood-opacity='1' result='grey'/>
	  <feComposite in='SourceGraphic' in2='grey' operator='atop'/>
	</filter>
</defs>
<g fill="none" color="#FFFFFF" stroke="black" stroke-width="1.00" stroke-linecap="butt" stroke-linejoin="miter">
</g>
<g fill="none" color="black" stroke="currentColor" stroke-width="1.00" stroke-linecap="butt" stroke-linejoin="miter">
	<path stroke='black'  d='M70.5,399.3 L79.5,399.3 M615.0,399.3 L606.0,399.3  '/>	<g transform="translate(62.2,403.2)" stroke="none" fill="black" font-family="Arial" font-size="12.00"  text-anchor="end">
		<text><tspan font-family="Arial" > 10000</tspan></text>
	</g>
</g>
<g fill="none" color="black" stroke="currentColor" stroke-width="1.00" stroke-linecap="butt" stroke-linejoin="miter">
	<path stroke='black'  d='M70.5,303.7 L79.5,303.7 M615.0,303.7 L606.0,303.7  '/>	<g transform="translate(62.2,307.6)" stroke="none" fill="black" font-family="Arial" font-size="12.00"  text-anchor="end">
		<text><tspan font-family="Arial" > 15000</tspan></text>
	</g>
</g>
<g fill="none" color="black" stroke="currentColor" stroke-width="1.00" stroke-linecap="butt" stroke-linejoin="miter">
	<path stroke='black'  d='M70.5,208.1 L79.5,208.1 M615.0,208.1 L606.0,208.1  '/>	<g transform="translate(62.2,212.0)" stroke="none" fill="black" font-family="Arial" font-size="12.00"  text-anchor="end">
		<text><tspan font-family="Arial" > 20000</tspan></text>
	</g>
</g>
<g fill="none" color="black" stroke="currentColor" stroke-width="1.00" stroke-linecap="butt" stroke-linejoin="miter">
	<path stroke='black'  d='M70.5,112.6 L79.5,112.6 M615.0,112.6 L606.0,112.6  '/>	<g transform="translate(62.2,116.5)" stroke="none" fill="black" font-family="Arial" font-size="12.00"  text-anchor="end">
		<text><tspan font-family="Arial" > 25000</tspan></text>
	</g>
</g>
<g fill="none" color="black" stroke="currentColor" stroke-width="1.00" stroke-linecap="butt" stroke-linejoin="miter">
	<path stroke='black'  d='M70.5,428.0 L70.5,419.0 M70.5,18.1 L70.5,27.1  '/>	<g transform="translate(70.5,449.9)" stroke="none" fill="black" font-family="Arial" font-size="12.00"  text-anchor="middle">
		<text><tspan font-family="Arial" > 0</tspan></text>
	</g>
</g>
<g fill="none" color="black" stroke="currentColor" stroke-width="1.00" stroke-linecap="butt" stroke-linejoin="miter">
	<path stroke='black'  d='M125.5,428.0 L125.5,419.0 M125.5,18.1 L125.5,27.1  '/>	<g transform="translate(125.5,449.9)" stroke="none" fill="black" font-family="Arial" font-size="12.00"  text-anchor="middle">
		<text><tspan font-family="Arial" > 10</tspan></text>
	</g>
</g>
<g fill="none" color="black" stroke="currentColor" stroke-width="1.00" stroke-linecap="butt" stroke-linejoin="miter">
	<path stroke='black'  d='M180.5,428.0 L180.5,419.0 M180.5,18.1 L180.5,27.1  '/>	<g transform="translate(180.5,449.9)" stroke="none" fill="black" font-family="Arial" font-size="12.00"  text-anchor="middle">
		<text><tspan font-family="Arial" > 20</tspan></text>
	</g>
</g>
<g fill="none" color="black" stroke="currentColor" stroke-width="1.00" stroke-linecap="butt" stroke-linejoin="miter">
	<path stroke='black'  d='M235.5,428.0 L235.5,419.0 M235.5,18.1 L235.5,27.1  '/>	<g transform="translate(235.5,449.9)" stroke="none" fill="black" font-family="Arial" font-size="12.00"  text-anchor="middle">
		<text><tspan font-family="Arial" > 30</tspan></text>
	</g>
</g>
<g fill="none" color="black" stroke="currentColor" stroke-width="1.00" stroke-linecap="butt" stroke-linejoin="miter">
	<path stroke='black'  d='M290.5,428.0 L290.5,419.0 M290.5,18.1 L290.5,27.1  '/>	<g transform="translate(290.5,449.9)" stroke="none" fill="black" font-family="Arial" font-size="12.00"  text-anchor="middle">
		<text><tspan font-family="Arial" > 40</tspan></text>
	</g>
</g>
<g fill="none" color="black" stroke="currentColor" stroke-width="1.00" stroke-linecap="butt" stroke-linejoin="miter">
	<path stroke='black'  d='M345.5,428.0 L345.5,419.0 M345.5,18.1 L345.5,27.1  '/>	<g transform="translate(345.5,449.9)" stroke="none" fill="black" font-family="Arial" font-size="12.00"  text-anchor="middle">
		<text><tspan font-family="Arial" > 50</tspan></text>
	</g>
</g>
<g fill="none" color="black" stroke="currentColor" stroke-width="1.00" stroke-linecap="butt" stroke-linejoin="miter">
	<path stroke='black'  d='M400.5,428.0 L400.5,419.0 M400.5,18.1 L400.5,27.1  '/>	<g transform="translate(400.5,449.9)" stroke="none" fill="black" font-family="Arial" font-size="12.00"  text-anchor="middle">
		<text><tspan font-family="Arial" > 60</tspan></text>
	</g>
</g>
<g fill="none" color="black" stroke="currentColor" stroke-width="1.00" stroke-linecap="butt" stroke-linejoin="miter">
	<path stroke='black'  d='M455.5,428.0 L455.5,419.0 M455.5,18.1 L455.5,27.1  '/>	<g transform="translate(455.5,449.9)" stroke="none" fill="black" font-family="Arial" font-size="12.00"  text-anchor="middle">
		<text><tspan font-family="Arial" > 70</tspan></text>
	</g>
</g>
<g fill="none" color="black" stroke="currentColor" stroke-width="1.00" stroke-linecap="butt" stroke-linejoin="miter">
	<path stroke='black'  d='M510.5,428.0 L510.5,419.0 M510.5,18.1 L510.5,27.1  '/>	<g transform="translate(510.5,449.9)" stroke="none" fill="black" font-family="Arial" font-size="12.00"  text-anchor="middle">
		<text><tspan font-family="Arial" > 80</tspan></text>
	</g>
</g>
<g fill="none" color="black" stroke="currentColor" stroke-width="1.00" stroke-linecap="butt" stroke-linejoin="miter">
	<path stroke='black'  d='M565.5,428.0 L565.5,419.0 M565.5,18.1 L565.5,27.1  '/>	<g transform="translate(565.5,449.9)" stroke="none" fill="black" font-family="Arial" font-size="12.00"  text-anchor="middle">
		<text><tspan font-family="Arial" > 90</tspan></text>
	</g>
</g>
<g fill="none" color="black" stroke="currentColor" stroke-width="1.00" stroke-linecap="butt" stroke-linejoin="miter">
</g>
<g fill="none" color="black" stroke="currentColor" stroke-width="1.00" stroke-linecap="butt" stroke-linejoin="miter">
	<path stroke='black'  d='M70.5,18.1 L70.5,428.0 L615.0,428.0 L615.0,18.1 L70.5,18.1 Z  '/></g>
<g fill="none" color="black" stroke="currentColor" stroke-width="1.00" stroke-linecap="butt" stroke-linejoin="miter">
</g>
	<g id="gnuplot_plot_1" ><title>pages+cached+nointeractive</title>
<g fill="none" color="black" stroke="currentColor" stroke-width="1.00" stroke-linecap="butt" stroke-linejoin="miter">
	<g transform="translate(283.9,467.9)" stroke="none" fill="black" font-family="Arial" font-size="12.00"  text-anchor="end">
		<text><tspan font-family="Arial" >pages+cached+nointeractive</tspan></text>
	</g>
</g>
<g fill="none" color="black" stroke="currentColor" stroke-width="1.00" stroke-linecap="butt" stroke-linejoin="miter">
	<path stroke='rgb(148,   0, 211)'  d='M292.2,464.0 L334.4,464.0 M70.5,306.3 L76.0,289.4 L81.5,289.3 L87.0,289.2 L92.5,289.0 L98.0,289.1
		L103.5,305.9 L109.0,306.9 L114.5,287.7 L120.0,306.5 L125.5,289.3 L131.0,306.6 L136.5,307.9 L142.0,306.2
		L147.5,289.2 L153.0,288.9 L158.5,289.5 L164.0,288.9 L169.5,289.2 L175.0,306.4 L180.5,289.2 L186.0,289.0
		L191.5,289.1 L197.0,289.0 L202.5,306.7 L208.0,307.6 L213.5,288.0 L219.0,307.9 L224.5,26.3 L230.0,204.3
		L235.5,26.0 L241.0,26.7 L246.5,194.4 L252.0,203.2 L257.5,36.5 L263.0,194.3 L268.5,112.3 L274.0,26.2
		L279.5,26.5 L285.0,26.5 L290.5,194.1 L296.0,26.1 L301.5,26.6 L307.0,26.0 L312.5,36.4 L318.0,36.5
		L323.5,26.5 L329.0,26.4 L334.5,26.4 L340.0,112.4 L345.5,26.5 L351.0,112.4 L356.5,36.5 L362.0,204.4
		L367.5,194.3 L373.0,204.6 L378.5,34.9 L384.0,112.2 L389.5,27.1 L395.0,204.4 L400.5,193.9 L406.0,34.9
		L411.5,26.6 L417.0,26.2 L422.5,194.1 L428.0,194.3 L433.5,112.3 L439.0,194.4 L444.5,112.3 L450.0,26.3
		L455.5,263.5 L461.0,271.8 L466.5,194.3 L472.0,194.4 L477.5,26.2 L483.0,26.6 L488.5,26.4 L494.0,26.2
		L499.5,26.3 L505.0,204.3 L510.5,26.9 L516.0,263.0 L521.5,26.0 L527.0,204.5 L532.5,205.1 L538.0,26.3
		L543.5,194.3 L549.0,34.8 L554.5,194.3 L560.0,272.1 L565.5,26.4 L571.0,193.8 L576.5,36.2 L582.0,194.5
		L587.5,26.7 L593.0,203.2 L598.5,194.5 L604.0,26.4 L609.5,26.5 L615.0,26.2  '/></g>
	</g>
	<g id="gnuplot_plot_2" ><title>pages+cached+noadtech</title>
<g fill="none" color="black" stroke="currentColor" stroke-width="1.00" stroke-linecap="butt" stroke-linejoin="miter">
	<g transform="translate(283.9,485.9)" stroke="none" fill="black" font-family="Arial" font-size="12.00"  text-anchor="end">
		<text><tspan font-family="Arial" >pages+cached+noadtech</tspan></text>
	</g>
</g>
<g fill="none" color="black" stroke="currentColor" stroke-width="1.00" stroke-linecap="butt" stroke-linejoin="miter">
	<path stroke='rgb(  0, 158, 115)'  d='M292.2,482.0 L334.4,482.0 M70.5,404.2 L76.0,419.5 L81.5,419.6 L87.0,419.9 L92.5,403.6 L98.0,403.5
		L103.5,419.9 L109.0,419.9 L114.5,419.7 L120.0,419.7 L125.5,403.7 L131.0,403.8 L136.5,419.4 L142.0,419.6
		L147.5,419.6 L153.0,419.5 L158.5,403.4 L164.0,419.7 L169.5,403.7 L175.0,419.3 L180.5,419.9 L186.0,419.7
		L191.5,419.5 L197.0,420.0 L202.5,419.6 L208.0,419.5 L213.5,419.5 L219.0,419.6 L224.5,402.5 L230.0,403.7
		L235.5,420.1 L241.0,419.9 L246.5,420.0 L252.0,419.7 L257.5,419.9 L263.0,403.9 L268.5,419.4 L274.0,419.8
		L279.5,403.9 L285.0,403.8 L290.5,419.8 L296.0,403.8 L301.5,419.7 L307.0,403.7 L312.5,419.6 L318.0,403.8
		L323.5,419.5 L329.0,419.5 L334.5,403.9 L340.0,419.7 L345.5,419.5 L351.0,419.6 L356.5,419.5 L362.0,403.8
		L367.5,419.8 L373.0,403.6 L378.5,419.6 L384.0,419.7 L389.5,419.7 L395.0,419.2 L400.5,419.8 L406.0,419.5
		L411.5,404.0 L417.0,419.5 L422.5,419.6 L428.0,419.3 L433.5,419.6 L439.0,419.9 L444.5,419.8 L450.0,403.9
		L455.5,404.2 L461.0,404.0 L466.5,419.7 L472.0,419.5 L477.5,403.8 L483.0,419.6 L488.5,419.5 L494.0,419.7
		L499.5,403.8 L505.0,419.7 L510.5,403.7 L516.0,419.7 L521.5,403.8 L527.0,419.9 L532.5,403.9 L538.0,403.7
		L543.5,403.8 L549.0,419.5 L554.5,403.7 L560.0,420.0 L565.5,419.6 L571.0,419.5 L576.5,149.7 L582.0,419.7
		L587.5,402.5 L593.0,403.3 L598.5,419.9 L604.0,419.6 L609.5,419.6 L615.0,403.7  '/></g>
	</g>
	<g id="gnuplot_plot_3" ><title>score p10=2500</title>
<g fill="none" color="black" stroke="currentColor" stroke-width="1.00" stroke-linecap="butt" stroke-linejoin="miter">
	<g transform="translate(558.5,467.9)" stroke="none" fill="black" font-family="Arial" font-size="12.00"  text-anchor="end">
		<text><tspan font-family="Arial" >score p10=2500</tspan></text>
	</g>
</g>
<g fill="none" color="black" stroke="currentColor" stroke-width="1.00" stroke-linecap="butt" stroke-linejoin="miter">
	<path stroke='rgb( 86, 180, 233)'  d='M566.8,464.0 L609.0,464.0  '/></g>
	</g>
	<g id="gnuplot_plot_4" ><title>score median=4000</title>
<g fill="none" color="black" stroke="currentColor" stroke-width="1.00" stroke-linecap="butt" stroke-linejoin="miter">
	<g transform="translate(558.5,485.9)" stroke="none" fill="black" font-family="Arial" font-size="12.00"  text-anchor="end">
		<text><tspan font-family="Arial" >score median=4000</tspan></text>
	</g>
</g>
<g fill="none" color="black" stroke="currentColor" stroke-width="1.00" stroke-linecap="butt" stroke-linejoin="miter">
	<path stroke='rgb(230, 159,   0)'  d='M566.8,482.0 L609.0,482.0  '/></g>
	</g>
<g fill="none" color="#FFFFFF" stroke="rgb(230, 159,   0)" stroke-width="2.00" stroke-linecap="butt" stroke-linejoin="miter">
</g>
<g fill="none" color="black" stroke="currentColor" stroke-width="2.00" stroke-linecap="butt" stroke-linejoin="miter">
</g>
<g fill="none" color="black" stroke="black" stroke-width="1.00" stroke-linecap="butt" stroke-linejoin="miter">
</g>
<g fill="none" color="black" stroke="currentColor" stroke-width="1.00" stroke-linecap="butt" stroke-linejoin="miter">
	<path stroke='black'  d='M70.5,18.1 L70.5,428.0 L615.0,428.0 L615.0,18.1 L70.5,18.1 Z  '/></g>
<g fill="none" color="black" stroke="currentColor" stroke-width="1.00" stroke-linecap="butt" stroke-linejoin="miter">
</g>
</g>
</svg>
